X:1
T:The Mary Somers
M:3/4
L:1/8
K:F
 C/2C/2| FF F2 GF| DD C2 CC| AB c2 d3/2 c/2| BA G3 C| AB c2d-c| BA G3 C|\
 CC B2 A3/2 A/2| FE F2||
